src/assets/icons/explore.svg

<svg width="28" height="29" viewBox="0 0 28 29" fill="none" xmlns="http://www.w3.org/2000/svg">
<mask id="mask0_6_385" style="mask-type:alpha" maskUnits="userSpaceOnUse" x="0" y="0" width="28" height="29">
<rect y="0.768066" width="28" height="28" fill="#C4C4C4"/>
</mask>
<g mask="url(#mask0_6_385)">
<path d="M24.2085 10.2018H19.6235L20.0575 5.21781C20.0995 4.73714 19.7425 4.31364 19.2618 4.27048C18.7753 4.23548 18.3565 4.58548 18.3145 5.06731L17.8677 10.2006H10.4943L10.926 5.21896C10.9692 4.73713 10.611 4.31364 10.1327 4.27048C9.64266 4.23548 9.22616 4.58548 9.18416 5.06731L8.73849 10.2006H4.12083C3.63783 10.2006 3.24583 10.5938 3.24583 11.0756C3.24583 11.5575 3.63783 11.9506 4.12083 11.9506H8.58683L7.94516 19.3321H3.2085C2.7255 19.3321 2.3335 19.7241 2.3335 20.2071C2.3335 20.6901 2.7255 21.0821 3.2085 21.0821H7.7935L7.35949 26.0661C7.31749 26.5468 7.67449 26.9703 8.15516 27.0135L8.23216 27.017C8.68133 27.017 9.06283 26.6728 9.1025 26.2166L9.54933 21.0833H16.9227L16.491 26.065C16.449 26.5468 16.806 26.9703 17.2867 27.0135L17.3637 27.017C17.8128 27.017 18.1943 26.6728 18.234 26.2166L18.6797 21.0833H23.2962C23.778 21.0833 24.1712 20.6901 24.1712 20.2083C24.1712 19.7265 23.778 19.3333 23.2962 19.3333H18.8302L19.4718 11.9518H24.2085C24.6915 11.9518 25.0835 11.5598 25.0835 11.0768C25.0835 10.5938 24.6915 10.2018 24.2085 10.2018ZM17.0743 19.3321H9.701L10.3427 11.9518H17.716L17.0743 19.3321Z" fill="black"/>
</g>
</svg>

<svg width="28" height="29" fill="none" xmlns="http://www.w3.org/2000/svg"><mask id="a" style="mask-type:alpha" maskUnits="userSpaceOnUse" x="0" y="0" width="28" height="29"><path fill="#C4C4C4" d="M0 .768h28v28H0z"/></mask><g mask="url(#a)"><path d="M24.209 10.202h-4.585l.434-4.984a.876.876 0 0 0-.796-.948.877.877 0 0 0-.948.797l-.446 5.134h-7.374l.432-4.982a.876.876 0 0 0-.793-.949.876.876 0 0 0-.949.797l-.446 5.134H4.121a.876.876 0 0 0 0 1.75h4.466l-.642 7.381H3.208a.875.875 0 0 0 0 1.75h4.585l-.434 4.984a.876.876 0 0 0 .796.948l.077.003c.45 0 .83-.344.87-.8l.447-5.134h7.374l-.432 4.982a.877.877 0 0 0 .796.948l.077.004c.449 0 .83-.344.87-.8l.446-5.134h4.616a.877.877 0 0 0 .875-.875.877.877 0 0 0-.875-.875H18.83l.642-7.381h4.736a.875.875 0 0 0 0-1.75zm-7.135 9.13H9.701l.642-7.38h7.373l-.642 7.38z" fill="#000"/></g></svg>
